X:2419
T:Polska från Västergötland
T:Svenska Folkdansar H1 nr 4
O:Västergötland
B:Traditioner av Svenska Folkdansar Häfte 1, nr 4
R:Polska
Z:Nils L
U:I=invertedturn
U:V = wedge
M:3/4
L:1/8
K:Ddor
f2 (ef) (de) | If>g a2 a2 | f2 (ef) (de) | (g/2f/2e/2f/2) VaVf d2 |
f2 (ef) (de) | (g/2f/2e/2f/2) Va2 Va2 | a2 {^c'}d'2 af | (ef) d4 ::
(ef) d2 a2 | (ga) (ef) (de) | (fe) d2 a2 | (g2 a4) |
f2 (ef) (de) | (g/2f/2e/2f/2) a2 a2 | a2 {^c'}d'2 af | (ef) d4 :|
(:musicend:)
(:title Polska från Västergötland Svenska Folkdansar H1 nr 5:)

(:music:)
